X:98
T:Slängpolska
T:(SvL Skåne nr. 754)
T:efter Per Munkberg
O:Barsebäck, Skåne
R:Polska
Z:2007-09-05
B:Svenska Låtar Skåne
M:3/4
L:1/8
K:Am
|:e2A2E2|e2 Bc e2|c/2d/2e/2f/2 a/2g/2f/2e/2 c/2d/2e/2f/2|g/2f/2e/2d/2 f/2e/2d/2c/2 BA|
e2A2E2|e2 Bc e2|c/2d/2e/2f/2 a/2g/2f/2e/2 c/2d/2e/2f/2|g/2f/2e/2d/2 fe e2:|
|:G/2B/2e/2B/2 G/2B/2e/2B/2 G/2B/2e/2B/2|F/2A/2e/2A/2 F/2A/2e/2A/2 F/2A/2e/2A/2|G/2B/2e/2B/2 G/2B/2e/2B/2 G/2B/2e/2B/2|F/2A/2e/2A/2 F/2A/2e/2A/2 F/2A/2e/2A/2|
A/2B/2c/2d/2 e2 a2|g/2f/2e/2d/2 fe e2:|
(:musicend:)

%red% Är det säkert att detta är Am och inte Ephr? Den saknar förtecken och har ett tydligt slut på e, liksom början.  \Jonas

%green% Modalitet handlar om upplevelse, och är därför alltid subjektiv. Det finns inget 100% "rätt" svar på frågan. Det enklaste sättet att testa är att sjunga/spela en bordun till låten. Pröva att spela en A- respektive E-bordun till denna låt. Vilken känns mest "hemma", mest "vilande"?

%green% Men vill man gräva ner sig lite mer finns det andra saker som talar för ett A-modus. Ett kort exempel:

%green% Första takten etablerar tydligt kvinten E-A, vilket (i vår västerländska musiktradition) brukar upplevas som att A får karaktär av grundton. Det hänger ihop med hur [[http://en.wikipedia.org/wiki/Harmonic_series_(music)|övertonsserien]] ser ut. Hade första takten istället varit E-H-E hade det däremot pekat mot E.

%green% För den som är intresserad av modalitet inom svensk folkmusik kan jag rekommendera t ex Sven Ahlbäcks skrifter i ämnet! / Erik

%red% Tack för det uttömmande svaret! Kanske kan du lägga  till delar av detta till Kyrkotonartssidan? \Jonas
(:music:)
